svg/color/kine.svg

<svg xmlns="http://www.w3.org/2000/svg" width="500" height="500" viewBox="0 0 500 500"><path fill="#e9f4f3" fill-rule="evenodd" d="M226.264.718c1.52.229 3.77.223 5-.014S231.25.279 228.5.286s-3.756.202-2.236.432m43 0c1.52.229 3.77.223 5-.014S274.25.279 271.5.286s-3.756.202-2.236.432M163 14.577l-2.5 1.506 2.5-.654c1.375-.359 2.928-1.053 3.45-1.541 1.527-1.428-.664-.99-3.45.689m170.55-.689c.522.488 2.075 1.182 3.45 1.541l2.5.654-2.5-1.506c-2.786-1.679-4.977-2.117-3.45-.689M81.437 64.25 78.5 67.5l3.25-2.937c1.787-1.615 3.25-3.078 3.25-3.25 0-.773-.825-.092-3.563 2.937M415 61.313c0 .172 1.462 1.635 3.25 3.25l3.25 2.937-2.937-3.25c-2.738-3.029-3.563-3.71-3.563-2.937M40.535 111.587c-.932 1.422-1.523 2.759-1.312 2.969s1.171-.954 2.136-2.587c2.155-3.648 1.512-3.947-.824-.382m95.703 49.663.262 36.25 36.25.262 36.25.263V125h-73.025zm119.533 21c-21.031 31.488-39.759 59.639-41.619 62.56l-3.381 5.309 41.621 62.441L294.013 375h34.601c30.018 0 34.525-.195 34.036-1.469-.31-.808-18.672-28.595-40.804-61.75S281.607 250.825 281.609 250s18.316-28.971 40.697-62.546S363 126.092 363 125.704 347.477 125 328.504 125h-34.495zM14.125 163.625c-.66 1.448-.971 2.863-.69 3.143.28.28.984-.74 1.565-2.268 1.372-3.608.684-4.296-.875-.875M484.583 163c.741 2.785 1.214 3.536 1.835 2.915.23-.23-.239-1.542-1.042-2.917l-1.459-2.498zM3.755 200.5c-.263 1.375-.09 2.5.384 2.5.473 0 .861-1.125.861-2.5s-.173-2.5-.383-2.5-.599 1.125-.862 2.5m-3.469 28c.008 2.75.202 3.756.432 2.236s.223-3.77-.014-5-.425.014-.418 2.764m499 0c.008 2.75.202 3.756.432 2.236s.223-3.77-.014-5-.425.014-.418 2.764m-499 43c.008 2.75.202 3.756.432 2.236s.223-3.77-.014-5-.425.014-.418 2.764m499 0c.008 2.75.202 3.756.432 2.236s.223-3.77-.014-5-.425.014-.418 2.764m-362.619 31.167c-.367.366-.667 16.791-.667 36.5V375h73v-73h-35.833c-19.709 0-36.134.3-36.5.667m348.361 32.759c-1.486 3.909-1.192 4.524.59 1.236.846-1.562 1.291-3.086.988-3.389s-1.013.666-1.578 2.153m-470.844 1.078c.627 1.378 1.275 2.37 1.439 2.207.608-.609-.888-4.711-1.718-4.711-.474 0-.349 1.127.279 2.504m444.448 51.746-1.799 3.25 2.061-2.5c1.828-2.217 2.64-4 1.822-4-.157 0-1.094 1.462-2.084 3.25M79 433.313c0 .172 1.463 1.635 3.25 3.25l3.25 2.937-2.937-3.25c-2.738-3.029-3.563-3.71-3.563-2.937m338.437 2.937-2.937 3.25 3.25-2.937c3.029-2.738 3.71-3.563 2.937-3.563-.172 0-1.635 1.462-3.25 3.25M163 485.423c2.786 1.679 4.977 2.117 3.45.689-.522-.488-2.075-1.182-3.45-1.541l-2.5-.654zm172.75-.734c-.962.252-1.75.89-1.75 1.42 0 .553.954.465 2.25-.209 3.75-1.951 3.612-2.285-.5-1.211m-109.486 15.029c1.52.229 3.77.223 5-.014s-.014-.425-2.764-.418-3.756.202-2.236.432m43 0c1.52.229 3.77.223 5-.014s-.014-.425-2.764-.418-3.756.202-2.236.432"/><path fill="#15aaa4" fill-rule="evenodd" d="M230 .587c-1.925.224-8.675.9-15 1.503s-12.057 1.554-12.737 2.115c-.681.56-1.904.763-2.718.451-.815-.313-1.707-.202-1.984.246s-3.892 1.361-8.032 2.029S182 8.501 182 8.935s-2.46 1.283-5.467 1.887-7.419 1.987-9.806 3.075c-2.387 1.087-6.452 2.509-9.034 3.159-2.581.65-4.693 1.489-4.693 1.865s-2.363 1.513-5.25 2.526-5.925 2.397-6.75 3.075-3.187 1.828-5.25 2.556c-2.062.728-3.75 1.653-3.75 2.056 0 .402-.891 1.014-1.98 1.36-1.855.588-12.289 6.49-14.537 8.222-.559.431-3.709 2.566-7 4.743s-6.658 4.542-7.483 5.254-3.525 2.892-6 4.846C81.394 64.302 64.936 80.522 56 91.997c-3.025 3.884-6.202 7.836-7.06 8.782-.859.947-3.304 4.421-5.434 7.721s-4.155 6.225-4.498 6.5c-1.022.818-12.702 22.309-13.452 24.75-.38 1.237-1.022 2.25-1.426 2.25s-1.575 2.363-2.601 5.25-2.412 6.15-3.078 7.25c-.667 1.1-1.524 3.334-1.905 4.965s-1.558 4.867-2.617 7.19-2.433 6.615-3.054 9.535-1.488 5.54-1.925 5.821c-.438.282-1.588 5.007-2.555 10.5S4.311 202.725 3.915 203C2.3 204.12.502 228.881.502 250c0 22.477 1.778 45.401 3.703 47.737.56.681.763 1.904.451 2.718-.313.815-.202 1.707.246 1.984s1.361 3.892 2.029 8.032S8.478 318 8.884 318s1.556 3.6 2.555 8c.998 4.4 2.158 8 2.577 8s1.554 2.925 2.521 6.5c.968 3.575 2.054 6.5 2.414 6.5s1.483 2.363 2.496 5.25 2.346 5.925 2.961 6.75c.616.825 2.913 5.1 5.105 9.5s4.262 8.225 4.597 8.5 1.412 2.075 2.39 4 2.054 3.725 2.39 4c.335.275 2.392 3.2 4.569 6.5s4.542 6.675 5.254 7.5c1.159 1.344 3.924 4.799 10.608 13.256 8.781 11.11 35.884 35.517 49.179 44.286 3.3 2.177 6.225 4.209 6.5 4.516.924 1.031 22.474 12.687 24.75 13.386 1.238.38 2.25 1.022 2.25 1.426s2.363 1.565 5.25 2.581c2.887 1.015 5.755 2.236 6.371 2.713s3.388 1.54 6.158 2.363c2.769.822 6.315 2.162 7.878 2.977 1.564.815 5.431 1.994 8.593 2.619s5.75 1.496 5.75 1.934c0 .439 3.388 1.344 7.529 2.012 4.14.668 7.741 1.559 8.001 1.979s1.418.517 2.573.215 2.393-.079 2.749.497c2.946 4.759 89.111 4.791 94.885.035.681-.56 1.904-.763 2.718-.451.815.313 1.707.202 1.984-.246s3.892-1.361 8.032-2.029 7.529-1.547 7.529-1.953 3.6-1.556 8-2.555c4.4-.998 8-2.137 8-2.53s1.913-1.281 4.25-1.974c2.337-.692 6.5-2.276 9.25-3.52s6.125-2.602 7.5-3.018 3.175-1.303 4-1.973c.825-.669 3.075-1.828 5-2.575 1.925-.746 3.725-1.643 4-1.993.275-.349 1.85-1.325 3.5-2.169 23.88-12.216 53.338-36.929 72.484-60.809 3.307-4.125 6.602-8.175 7.322-9s3.054-4.2 5.186-7.5 4.157-6.225 4.5-6.5c1.022-.818 12.702-22.309 13.452-24.75.38-1.238 1.022-2.25 1.426-2.25s1.536-2.228 2.515-4.951 2.643-6.643 3.698-8.711c1.054-2.069 1.932-4.453 1.951-5.299s.903-3.339 1.965-5.539 2.455-6.587 3.096-9.75 1.524-5.75 1.962-5.75c.439 0 1.344-3.388 2.012-7.529.668-4.14 1.581-7.755 2.029-8.032s.559-1.169.246-1.984c-.312-.814-.084-2.064.508-2.777s1.584-7.569 2.206-15.237 1.537-14.722 2.036-15.677c1.277-2.448 1.188-35.056-.094-34.264-.61.377-1-1.143-1-3.902 0-7.481-2.142-25.011-3.218-26.335-.553-.681-.75-1.904-.438-2.718.313-.815.202-1.707-.246-1.984s-1.361-3.892-2.029-8.032-1.547-7.529-1.953-7.529-1.556-3.6-2.555-8c-.998-4.4-2.15-8-2.558-8-.409 0-1.335-2.137-2.058-4.75s-2.321-6.775-3.552-9.25-2.547-5.742-2.926-7.259-1.013-2.961-1.411-3.206c-.397-.246-2.698-4.404-5.115-9.241-2.416-4.837-4.678-9.019-5.027-9.294s-1.436-2.075-2.414-4-2.054-3.725-2.39-4c-.335-.275-2.392-3.2-4.569-6.5s-4.542-6.675-5.254-7.5c-1.159-1.344-3.924-4.799-10.608-13.256C433.529 78.697 399.26 47 396.629 47c-.498 0-6.336-4.091-11.129-7.8-2.129-1.647-23.119-12.989-25.25-13.644-1.238-.38-2.25-1.022-2.25-1.426s-2.363-1.565-5.25-2.581c-2.887-1.015-5.755-2.236-6.371-2.713s-3.388-1.54-6.158-2.363c-2.769-.822-6.315-2.162-7.878-2.977-1.564-.815-5.43-1.994-8.593-2.619S318 9.381 318 8.943c0-.439-3.388-1.344-7.529-2.012-4.14-.668-7.741-1.559-8.001-1.979s-1.418-.517-2.573-.215-2.393.086-2.749-.48C296.068 2.541 277.727.925 255 .542c-11.825-.199-23.075-.179-25 .045M136.238 161.25l.262 36.25 36.25.262 36.25.263V125h-73.025zm119.533 21c-21.031 31.488-39.759 59.639-41.619 62.56l-3.381 5.309 41.621 62.441L294.013 375h34.601c30.018 0 34.525-.195 34.036-1.469-.31-.808-18.672-28.595-40.804-61.75S281.607 250.825 281.609 250s18.316-28.971 40.697-62.546S363 126.092 363 125.704 347.477 125 328.504 125h-34.495zM.411 250c0 9.625.15 13.563.334 8.75.183-4.813.183-12.688 0-17.5-.184-4.812-.334-.875-.334 8.75m136.256 52.667c-.367.366-.667 16.791-.667 36.5V375h73v-73h-35.833c-19.709 0-36.134.3-36.5.667"/></svg>

<svg xmlns="http://www.w3.org/2000/svg" width="500" height="500" viewBox="0 0 500 500" version="1.1"><path d="M 226.264 0.718 C 227.784 0.947, 230.034 0.941, 231.264 0.704 C 232.494 0.467, 231.250 0.279, 228.500 0.286 C 225.750 0.294, 224.744 0.488, 226.264 0.718 M 269.264 0.718 C 270.784 0.947, 273.034 0.941, 274.264 0.704 C 275.494 0.467, 274.250 0.279, 271.500 0.286 C 268.750 0.294, 267.744 0.488, 269.264 0.718 M 163 14.577 L 160.500 16.083 163 15.429 C 164.375 15.070, 165.928 14.376, 166.450 13.888 C 167.977 12.460, 165.786 12.898, 163 14.577 M 333.550 13.888 C 334.072 14.376, 335.625 15.070, 337 15.429 L 339.500 16.083 337 14.577 C 334.214 12.898, 332.023 12.460, 333.550 13.888 M 81.437 64.250 L 78.500 67.500 81.750 64.563 C 83.537 62.948, 85 61.485, 85 61.313 C 85 60.540, 84.175 61.221, 81.437 64.250 M 415 61.313 C 415 61.485, 416.462 62.948, 418.250 64.563 L 421.500 67.500 418.563 64.250 C 415.825 61.221, 415 60.540, 415 61.313 M 40.535 111.587 C 39.603 113.009, 39.012 114.346, 39.223 114.556 C 39.433 114.766, 40.394 113.602, 41.359 111.969 C 43.514 108.321, 42.871 108.022, 40.535 111.587 M 136.238 161.250 L 136.500 197.500 172.750 197.762 L 209 198.025 209 161.512 L 209 125 172.488 125 L 135.975 125 136.238 161.250 M 255.771 182.250 C 234.740 213.738, 216.012 241.889, 214.152 244.810 L 210.771 250.119 252.392 312.560 L 294.013 375 328.614 375 C 358.632 375, 363.139 374.805, 362.650 373.531 C 362.340 372.723, 343.978 344.936, 321.846 311.781 C 299.714 278.627, 281.607 250.825, 281.609 250 C 281.611 249.175, 299.925 221.029, 322.306 187.454 C 344.688 153.879, 363 126.092, 363 125.704 C 363 125.317, 347.477 125, 328.504 125 L 294.009 125 255.771 182.250 M 14.125 163.625 C 13.465 165.073, 13.154 166.488, 13.435 166.768 C 13.715 167.048, 14.419 166.028, 15 164.500 C 16.372 160.892, 15.684 160.204, 14.125 163.625 M 484.583 163 C 485.324 165.785, 485.797 166.536, 486.418 165.915 C 486.648 165.685, 486.179 164.373, 485.376 162.998 L 483.917 160.500 484.583 163 M 3.755 200.500 C 3.492 201.875, 3.665 203, 4.139 203 C 4.612 203, 5 201.875, 5 200.500 C 5 199.125, 4.827 198, 4.617 198 C 4.406 198, 4.018 199.125, 3.755 200.500 M 0.286 228.500 C 0.294 231.250, 0.488 232.256, 0.718 230.736 C 0.947 229.216, 0.941 226.966, 0.704 225.736 C 0.467 224.506, 0.279 225.750, 0.286 228.500 M 499.286 228.500 C 499.294 231.250, 499.488 232.256, 499.718 230.736 C 499.947 229.216, 499.941 226.966, 499.704 225.736 C 499.467 224.506, 499.279 225.750, 499.286 228.500 M 0.286 271.500 C 0.294 274.250, 0.488 275.256, 0.718 273.736 C 0.947 272.216, 0.941 269.966, 0.704 268.736 C 0.467 267.506, 0.279 268.750, 0.286 271.500 M 499.286 271.500 C 499.294 274.250, 499.488 275.256, 499.718 273.736 C 499.947 272.216, 499.941 269.966, 499.704 268.736 C 499.467 267.506, 499.279 268.750, 499.286 271.500 M 136.667 302.667 C 136.300 303.033, 136 319.458, 136 339.167 L 136 375 172.500 375 L 209 375 209 338.500 L 209 302 173.167 302 C 153.458 302, 137.033 302.300, 136.667 302.667 M 485.028 335.426 C 483.542 339.335, 483.836 339.950, 485.618 336.662 C 486.464 335.100, 486.909 333.576, 486.606 333.273 C 486.304 332.970, 485.593 333.939, 485.028 335.426 M 14.184 336.504 C 14.811 337.882, 15.459 338.874, 15.623 338.711 C 16.231 338.102, 14.735 334, 13.905 334 C 13.431 334, 13.556 335.127, 14.184 336.504 M 458.632 388.250 L 456.833 391.500 458.894 389 C 460.722 386.783, 461.534 385, 460.716 385 C 460.559 385, 459.622 386.462, 458.632 388.250 M 79 433.313 C 79 433.485, 80.463 434.948, 82.250 436.563 L 85.500 439.500 82.563 436.250 C 79.825 433.221, 79 432.540, 79 433.313 M 417.437 436.250 L 414.500 439.500 417.750 436.563 C 420.779 433.825, 421.460 433, 420.687 433 C 420.515 433, 419.052 434.462, 417.437 436.250 M 163 485.423 C 165.786 487.102, 167.977 487.540, 166.450 486.112 C 165.928 485.624, 164.375 484.930, 163 484.571 L 160.500 483.917 163 485.423 M 335.750 484.689 C 334.788 484.941, 334 485.579, 334 486.109 C 334 486.662, 334.954 486.574, 336.250 485.900 C 340 483.949, 339.862 483.615, 335.750 484.689 M 226.264 499.718 C 227.784 499.947, 230.034 499.941, 231.264 499.704 C 232.494 499.467, 231.250 499.279, 228.500 499.286 C 225.750 499.294, 224.744 499.488, 226.264 499.718 M 269.264 499.718 C 270.784 499.947, 273.034 499.941, 274.264 499.704 C 275.494 499.467, 274.250 499.279, 271.500 499.286 C 268.750 499.294, 267.744 499.488, 269.264 499.718" stroke="none" fill="#e9f4f3" fill-rule="evenodd"/><path d="M 230 0.587 C 228.075 0.811, 221.325 1.487, 215 2.090 C 208.675 2.692, 202.943 3.644, 202.263 4.205 C 201.582 4.765, 200.359 4.968, 199.545 4.656 C 198.730 4.343, 197.838 4.454, 197.561 4.902 C 197.284 5.350, 193.669 6.263, 189.529 6.931 C 185.388 7.599, 182 8.501, 182 8.935 C 182 9.369, 179.540 10.218, 176.533 10.822 C 173.527 11.426, 169.114 12.809, 166.727 13.897 C 164.340 14.984, 160.275 16.406, 157.693 17.056 C 155.112 17.706, 153 18.545, 153 18.921 C 153 19.297, 150.637 20.434, 147.750 21.447 C 144.863 22.460, 141.825 23.844, 141 24.522 C 140.175 25.200, 137.813 26.350, 135.750 27.078 C 133.688 27.806, 132 28.731, 132 29.134 C 132 29.536, 131.109 30.148, 130.020 30.494 C 128.165 31.082, 117.731 36.984, 115.483 38.716 C 114.924 39.147, 111.774 41.282, 108.483 43.459 C 105.192 45.637, 101.825 48.001, 101 48.713 C 100.175 49.424, 97.475 51.605, 95 53.559 C 81.394 64.302, 64.936 80.522, 56 91.997 C 52.975 95.881, 49.798 99.833, 48.940 100.779 C 48.081 101.726, 45.636 105.200, 43.506 108.500 C 41.375 111.800, 39.351 114.725, 39.008 115 C 37.986 115.818, 26.306 137.309, 25.556 139.750 C 25.176 140.987, 24.534 142, 24.130 142 C 23.726 142, 22.555 144.363, 21.529 147.250 C 20.503 150.137, 19.117 153.400, 18.451 154.500 C 17.784 155.600, 16.927 157.834, 16.546 159.465 C 16.165 161.096, 14.988 164.332, 13.929 166.655 C 12.871 168.979, 11.496 173.270, 10.875 176.190 C 10.254 179.111, 9.387 181.730, 8.950 182.011 C 8.512 182.293, 7.362 187.018, 6.395 192.511 C 5.427 198.005, 4.311 202.725, 3.915 203 C 2.300 204.120, 0.502 228.881, 0.502 250 C 0.502 272.477, 2.280 295.401, 4.205 297.737 C 4.765 298.418, 4.968 299.641, 4.656 300.455 C 4.343 301.270, 4.454 302.162, 4.902 302.439 C 5.350 302.716, 6.263 306.331, 6.931 310.471 C 7.599 314.612, 8.478 318, 8.884 318 C 9.290 318, 10.440 321.600, 11.439 326 C 12.437 330.400, 13.597 334, 14.016 334 C 14.435 334, 15.570 336.925, 16.537 340.500 C 17.505 344.075, 18.591 347, 18.951 347 C 19.311 347, 20.434 349.363, 21.447 352.250 C 22.460 355.137, 23.793 358.175, 24.408 359 C 25.024 359.825, 27.321 364.100, 29.513 368.500 C 31.706 372.900, 33.775 376.725, 34.110 377 C 34.446 377.275, 35.522 379.075, 36.500 381 C 37.478 382.925, 38.554 384.725, 38.890 385 C 39.225 385.275, 41.282 388.200, 43.459 391.500 C 45.637 394.800, 48.001 398.175, 48.713 399 C 49.872 400.344, 52.637 403.799, 59.321 412.256 C 68.102 423.366, 95.205 447.773, 108.500 456.542 C 111.800 458.719, 114.725 460.751, 115 461.058 C 115.924 462.089, 137.474 473.745, 139.750 474.444 C 140.988 474.824, 142 475.466, 142 475.870 C 142 476.274, 144.363 477.435, 147.250 478.451 C 150.137 479.466, 153.005 480.687, 153.621 481.164 C 154.238 481.641, 157.009 482.704, 159.779 483.527 C 162.548 484.349, 166.094 485.689, 167.657 486.504 C 169.221 487.319, 173.088 488.498, 176.250 489.123 C 179.412 489.749, 182 490.619, 182 491.057 C 182 491.496, 185.388 492.401, 189.529 493.069 C 193.669 493.737, 197.270 494.628, 197.530 495.048 C 197.789 495.468, 198.948 495.565, 200.103 495.263 C 201.259 494.960, 202.496 495.184, 202.852 495.760 C 205.798 500.519, 291.963 500.551, 297.737 495.795 C 298.418 495.235, 299.641 495.032, 300.455 495.344 C 301.270 495.657, 302.162 495.546, 302.439 495.098 C 302.716 494.650, 306.331 493.737, 310.471 493.069 C 314.612 492.401, 318 491.522, 318 491.116 C 318 490.710, 321.600 489.560, 326 488.561 C 330.400 487.563, 334 486.424, 334 486.031 C 334 485.638, 335.913 484.750, 338.250 484.057 C 340.587 483.365, 344.750 481.781, 347.500 480.537 C 350.250 479.293, 353.625 477.935, 355 477.519 C 356.375 477.104, 358.175 476.216, 359 475.546 C 359.825 474.877, 362.075 473.718, 364 472.971 C 365.925 472.225, 367.725 471.328, 368 470.978 C 368.275 470.629, 369.850 469.653, 371.500 468.809 C 395.380 456.593, 424.838 431.880, 443.984 408 C 447.291 403.875, 450.586 399.825, 451.306 399 C 452.026 398.175, 454.360 394.800, 456.492 391.500 C 458.624 388.200, 460.649 385.275, 460.992 385 C 462.014 384.182, 473.694 362.691, 474.444 360.250 C 474.824 359.012, 475.466 358, 475.870 358 C 476.274 358, 477.406 355.772, 478.385 353.049 C 479.364 350.326, 481.028 346.406, 482.083 344.338 C 483.137 342.269, 484.015 339.885, 484.034 339.039 C 484.053 338.192, 484.937 335.700, 485.999 333.500 C 487.061 331.300, 488.454 326.913, 489.095 323.750 C 489.736 320.587, 490.619 318, 491.057 318 C 491.496 318, 492.401 314.612, 493.069 310.471 C 493.737 306.331, 494.650 302.716, 495.098 302.439 C 495.546 302.162, 495.657 301.270, 495.344 300.455 C 495.032 299.641, 495.260 298.391, 495.852 297.678 C 496.444 296.965, 497.436 290.109, 498.058 282.441 C 498.679 274.773, 499.595 267.719, 500.094 266.764 C 501.371 264.316, 501.282 231.708, 500 232.500 C 499.390 232.877, 499 231.357, 499 228.598 C 499 221.117, 496.858 203.587, 495.782 202.263 C 495.229 201.582, 495.032 200.359, 495.344 199.545 C 495.657 198.730, 495.546 197.838, 495.098 197.561 C 494.650 197.284, 493.737 193.669, 493.069 189.529 C 492.401 185.388, 491.522 182, 491.116 182 C 490.710 182, 489.560 178.400, 488.561 174 C 487.563 169.600, 486.411 166, 486.003 166 C 485.594 166, 484.668 163.863, 483.945 161.250 C 483.222 158.637, 481.624 154.475, 480.393 152 C 479.162 149.525, 477.846 146.258, 477.467 144.741 C 477.088 143.223, 476.454 141.780, 476.056 141.535 C 475.659 141.289, 473.358 137.131, 470.941 132.294 C 468.525 127.457, 466.263 123.275, 465.914 123 C 465.565 122.725, 464.478 120.925, 463.500 119 C 462.522 117.075, 461.446 115.275, 461.110 115 C 460.775 114.725, 458.718 111.800, 456.541 108.500 C 454.363 105.200, 451.999 101.825, 451.287 101 C 450.128 99.656, 447.363 96.201, 440.679 87.744 C 433.529 78.697, 399.260 47, 396.629 47 C 396.131 47, 390.293 42.909, 385.500 39.200 C 383.371 37.553, 362.381 26.211, 360.250 25.556 C 359.012 25.176, 358 24.534, 358 24.130 C 358 23.726, 355.637 22.565, 352.750 21.549 C 349.863 20.534, 346.995 19.313, 346.379 18.836 C 345.762 18.359, 342.991 17.296, 340.221 16.473 C 337.452 15.651, 333.906 14.311, 332.343 13.496 C 330.779 12.681, 326.913 11.502, 323.750 10.877 C 320.587 10.251, 318 9.381, 318 8.943 C 318 8.504, 314.612 7.599, 310.471 6.931 C 306.331 6.263, 302.730 5.372, 302.470 4.952 C 302.211 4.532, 301.052 4.435, 299.897 4.737 C 298.741 5.040, 297.504 4.823, 297.148 4.257 C 296.068 2.541, 277.727 0.925, 255 0.542 C 243.175 0.343, 231.925 0.363, 230 0.587 M 136.238 161.250 L 136.500 197.500 172.750 197.762 L 209 198.025 209 161.512 L 209 125 172.488 125 L 135.975 125 136.238 161.250 M 255.771 182.250 C 234.740 213.738, 216.012 241.889, 214.152 244.810 L 210.771 250.119 252.392 312.560 L 294.013 375 328.614 375 C 358.632 375, 363.139 374.805, 362.650 373.531 C 362.340 372.723, 343.978 344.936, 321.846 311.781 C 299.714 278.627, 281.607 250.825, 281.609 250 C 281.611 249.175, 299.925 221.029, 322.306 187.454 C 344.688 153.879, 363 126.092, 363 125.704 C 363 125.317, 347.477 125, 328.504 125 L 294.009 125 255.771 182.250 M 0.411 250 C 0.411 259.625, 0.561 263.563, 0.745 258.750 C 0.928 253.937, 0.928 246.062, 0.745 241.250 C 0.561 236.438, 0.411 240.375, 0.411 250 M 136.667 302.667 C 136.300 303.033, 136 319.458, 136 339.167 L 136 375 172.500 375 L 209 375 209 338.500 L 209 302 173.167 302 C 153.458 302, 137.033 302.300, 136.667 302.667" stroke="none" fill="#15aaa4" fill-rule="evenodd"/></svg>
